icons/php/php-plain.svg

<svg xmlns="http://www.w3.org/2000/svg" viewBox="0 0 128 128"><path fill="#6181B6" d="M64 33.039c-33.74 0-61.094 13.862-61.094 30.961s27.354 30.961 61.094 30.961 61.094-13.862 61.094-30.961-27.354-30.961-61.094-30.961zm-15.897 36.993c-1.458 1.364-3.077 1.927-4.86 2.507-1.783.581-4.052.461-6.811.461h-6.253l-1.733 10h-7.301l6.515-34h14.04c4.224 0 7.305 1.215 9.242 3.432 1.937 2.217 2.519 5.364 1.747 9.337-.319 1.637-.856 3.159-1.614 4.515-.759 1.357-1.75 2.624-2.972 3.748zm21.311 2.968l2.881-14.42c.328-1.688.208-2.942-.361-3.555-.57-.614-1.782-1.025-3.635-1.025h-5.79l-3.731 19h-7.244l6.515-33h7.244l-1.732 9h6.453c4.061 0 6.861.815 8.402 2.231s2.003 3.356 1.387 6.528l-3.031 15.241h-7.358zm40.259-11.178c-.318 1.637-.856 3.133-1.613 4.488-.758 1.357-1.748 2.598-2.971 3.722-1.458 1.364-3.078 1.927-4.86 2.507-1.782.581-4.053.461-6.812.461h-6.253l-1.732 10h-7.301l6.514-34h14.041c4.224 0 7.305 1.215 9.241 3.432 1.935 2.217 2.518 5.418 1.746 9.39zM95.919 54h-5.001l-2.727 14h4.442c2.942 0 5.136-.29 6.576-1.4 1.442-1.108 2.413-2.828 2.918-5.421.484-2.491.264-4.434-.66-5.458-.925-1.024-2.774-1.721-5.548-1.721zM38.934 54h-5.002l-2.727 14h4.441c2.943 0 5.136-.29 6.577-1.4 1.441-1.108 2.413-2.828 2.917-5.421.484-2.491.264-4.434-.66-5.458s-2.772-1.721-5.546-1.721z"/></svg>

<svg version="1.1" xmlns="http://www.w3.org/2000/svg" xmlns:xlink="http://www.w3.org/1999/xlink" viewBox="0 0 128 128">
  <path fill="#6181B6" d="M64,33.039C30.26,33.039,2.906,46.901,2.906,64S30.26,94.961,64,94.961S125.094,81.099,125.094,64S97.74,33.039,64,33.039z M48.103,70.032c-1.458,1.364-3.077,1.927-4.86,2.507C41.46,73.12,39.191,73,36.432,73h-6.253l-1.733,10h-7.301l6.515-34h14.04c4.224,0,7.305,1.215,9.242,3.432c1.937,2.217,2.519,5.364,1.747,9.337c-0.319,1.637-0.856,3.159-1.614,4.515C50.316,67.641,49.325,68.908,48.103,70.032z M69.414,73l2.881-14.42c0.328-1.688,0.208-2.942-0.361-3.555C71.364,54.411,70.152,54,68.299,54h-5.79l-3.731,19h-7.244l6.515-33h7.244l-1.732,9h6.453c4.061,0,6.861,0.815,8.402,2.231s2.003,3.356,1.387,6.528L76.772,73H69.414z M109.673,61.822c-0.318,1.637-0.856,3.133-1.613,4.488c-0.758,1.357-1.748,2.598-2.971,3.722c-1.458,1.364-3.078,1.927-4.86,2.507C98.447,73.12,96.176,73,93.417,73h-6.253l-1.732,10h-7.301l6.514-34h14.041c4.224,0,7.305,1.215,9.241,3.432C109.862,54.649,110.445,57.85,109.673,61.822z"
  />
  <path fill="#6181B6" d="M95.919,54h-5.001l-2.727,14h4.442c2.942,0,5.136-0.29,6.576-1.4c1.442-1.108,2.413-2.828,2.918-5.421c0.484-2.491,0.264-4.434-0.66-5.458C100.542,54.697,98.693,54,95.919,54z" />
  <path fill="#6181B6" d="M38.934,54h-5.002l-2.727,14h4.441c2.943,0,5.136-0.29,6.577-1.4c1.441-1.108,2.413-2.828,2.917-5.421c0.484-2.491,0.264-4.434-0.66-5.458C43.556,54.697,41.708,54,38.934,54z" />
</svg>
